gameModel/files/maps/mapIcons/PC_choice.svg

<svg width="500" height="500" viewBox="0 0 500 500" fill="none" xmlns="http://www.w3.org/2000/svg">
<path fill-rule="evenodd" clip-rule="evenodd" d="M468.61 0.830078C485.39 0.830276 499 14.44 499 31.2197V302.11C499 318.9 485.39 332.5 468.61 332.5H352.67L259.51 493.87C255.28 501.18 244.72 501.18 240.49 493.87L147.33 332.5H31.3896C14.6099 332.5 1.00015 318.9 1 302.11V31.2197C1.00019 14.44 14.6099 0.830268 31.3896 0.830078H468.61ZM188 80C182.47 80 178 84.47 178 90V240.01H198V140.01H233C235.75 140.01 238 137.76 238 135.01V95.0098C238 92.2599 235.75 90.0098 233 90.0098V90H198C198 84.47 193.53 80 188 80ZM124.52 92.4004C120.77 89.1806 115.24 89.1806 111.49 92.4004L41.4902 152.4C38.3002 155.12 37.1801 159.531 38.6201 163.471C40.0502 167.41 43.8004 170 47.9902 170H57.9902V230C57.9902 235.53 62.4602 240 67.9902 240H167.99V129.681L124.49 92.4004H124.52Z" fill="white"/>
</svg>

<?xml version="1.0" encoding="UTF-8"?><svg id="uuid-021f4d34-12db-40a8-9b25-c57cfaf70a75" xmlns="http://www.w3.org/2000/svg" width="500" height="500" viewBox="0 0 500 500"><defs><style>.uuid-ee1c2335-8cc0-427a-872e-033295a132e7{fill:#f6f7f9;}.uuid-ee1c2335-8cc0-427a-872e-033295a132e7,.uuid-d28f2f71-28f1-4f61-8484-572f66dd7ca1{stroke-width:0px;}.uuid-d28f2f71-28f1-4f61-8484-572f66dd7ca1{fill:#1591c2;}</style></defs><path class="uuid-d28f2f71-28f1-4f61-8484-572f66dd7ca1" d="M499,31.22v270.89c0,16.79-13.61,30.39-30.39,30.39h-115.94l-41.66,72.17-51.5,89.2c-4.23,7.31-14.79,7.31-19.02,0l-51.5-89.2-41.66-72.17H31.39c-16.78,0-30.39-13.6-30.39-30.39V31.22C1,14.44,14.61.83,31.39.83h437.22c16.78,0,30.39,13.61,30.39,30.39Z"/><path class="uuid-ee1c2335-8cc0-427a-872e-033295a132e7" d="M233,90h-35c0-5.53-4.47-10-10-10s-10,4.47-10,10v150.01h20v-100h35c2.75,0,5-2.25,5-5v-40c0-2.75-2.25-5-5-5Z"/><path class="uuid-ee1c2335-8cc0-427a-872e-033295a132e7" d="M167.99,129.68v110.32h-100c-5.53,0-10-4.47-10-10v-60h-10c-4.19,0-7.94-2.59-9.37-6.53-1.44-3.94-.32-8.35,2.87-11.07l70-60c3.75-3.22,9.28-3.22,13.03,0h-.03l43.5,37.28Z"/></svg>
